X:807
T:Broken Pledge, The
O:england
R:reel
D:De Dannan: Selected Reels and Jigs.
M:C|
K:Ddor
dcAG ADDB|cAGF ECCE|D2 (3EFG Addc|AcGc Aefe|
dcAG FGAB|c2Bd cAGE|D2 (3EFG AddB|cAGE FDD2:|
|:dcAG Acde|~f3d ecAB|cAGE GAcd|ec~c2 eage|
dcAG Acde|fedf ecAG|~F3G AddB|cAGE FDD2:|
